projects/seb-pictograms/svg/light/28-Picto-Light_black.svg

<svg xmlns="http://www.w3.org/2000/svg" viewBox="0 0 170 170"><path d="M142 85a1.5 1.5 0 00-1.4-1.5H139a57 57 0 00-52.5 38.7v-43a27.1 27.1 0 0025.4-27.1V31.8a3 3 0 00-3-3h-9V8h-3v20.8H72.6V8h-3v20.8h-9a3 3 0 00-3 3v20.4a27.1 27.1 0 0025.9 27.1v42.9A57 57 0 0031 83.5h-1.6A1.5 1.5 0 0028 85a57 57 0 0055.5 56.9V165h3v-23.1A57 57 0 00142 85zM31.1 86.5a54 54 0 0152.4 52.4 54 54 0 01-52.4-52.4zm29.5-34.3V31.8h48.3v20.4a24.1 24.1 0 01-48.3 0zm25.9 86.7a54 54 0 0152.4-52.4 54 54 0 01-52.4 52.4z"/></svg>

<svg id="PIKTO_LIGHT" xmlns="http://www.w3.org/2000/svg" viewBox="0 0 170 170"><title>light_black</title><path d="M142,85a1.5,1.5,0,0,0-1.4-1.5H139a57,57,0,0,0-52.5,38.7v-43a27.1,27.1,0,0,0,25.4-27.1V31.8a3,3,0,0,0-3-3h-9V8h-3V28.8H72.6V8h-3V28.8h-9a3,3,0,0,0-3,3V52.2A27.1,27.1,0,0,0,83.5,79.3v42.9A57,57,0,0,0,31,83.5H29.4A1.5,1.5,0,0,0,28,85a57,57,0,0,0,55.5,56.9V165h3V141.9A57,57,0,0,0,142,85ZM31.1,86.5a54,54,0,0,1,52.4,52.4A54,54,0,0,1,31.1,86.5ZM60.6,52.2V31.8h48.3V52.2a24.1,24.1,0,0,1-48.3,0Zm25.9,86.7a54,54,0,0,1,52.4-52.4A54,54,0,0,1,86.5,138.9Z"/></svg>
